X: 67
T: A Wolf Nation Called Me `Father'
C: Teton Sioux band 1911-1914
N: Derived from sioux067.krn
O: South Dakota, U.S.A.
N: Teton Sioux Music by Frances Densmore, 1918
Z: transcribed to **kern format by Craig Sapp
L: 1/8
M: 2/4
Q: 1/4=58
K: A clef=bass
%%linebreak <none>
C C E [I:setbarnb 1]||  
[M:3/4]C4B, B, ||  
[M:2/4]A,4- | 
A, C C E ||  
[M:3/4]C4B, B, ||  
[M:2/4]A, C C E ||  
[M:3/4]C4B, B, ||  
[M:2/4]B, B, B, A,- | 
A,2F, F, ||  
F,4- | 
F, B, B, C ||  
[M:3/4]B,4A, A, ||  
[M:2/4]F, A, A, B, ||  
[M:3/4]B,4A, A, | 
[M:2/4]A, A, A, A,- | 
A,2F, F, | 
F,4- | 
F, C, C, E, ||  
[M:3/4]C,4B,, B,, | 
[M:2/4]A,, C, C, E, ||  
[M:3/4]C,4B,, B,, ||  
[M:2/4]B,, B,, B,, A,,- | 
A,,2F,, F,, | 
F,,4- | 
F,, :|]  



